X:1
T:Title
%%score { 1 | 2 }
L:1/8
M:3/4
K:G
V:1 treble nm="Grand Piano"
V:2 treble 
V:1
 z2 z2[Q:1/4=96] DG | B3 B AG | E [EG]3 [G,DF][G,CE] | [G,B,D]3 [G,DG] [CDF][B,DG] | [DFA]4 GA | %5
 B3 B AG |[M:2/4] E [EG]3 |[M:1/4] [DF]E |[M:3/4] DG A3 F | [G,B,G]4 [A,DF][B,DG] | %10
 [CFA]3 [CFA] [B,G][DFA] | [DGB] [B,DG]3 [G,DG]A | B3 B AG |[M:2/4] A4 |[M:1/4] Bc | %15
[M:3/4] d3 B [Ec][DB] | [EA] [CE]3 [DF]E | DG A3 F |[M:2/4] [B,G]4 |] %19
V:2
 z2 z2 [G,B,][G,B,D] | [G,DG]3 [G,DG] [G,CD][K:bass][G,B,D] | [C,C] [C,C]3 C,C, | G,,3 B,, A,,G,, | %4
 D,4[K:treble] [G,B,D][G,CD] | [G,DG]3 [G,DG] [G,CD][K:bass][G,B,D] |[M:2/4] [C,C] [C,C]3 | %7
[M:1/4] [C,G,][C,G,C] |[M:3/4] [D,G,B,][D,G,B,] [D,F,C]3 [D,A,C] | G,,4 D,D, | D,3 D, D,D, | %11
 G, G,3 B,,[D,F,D] | [G,D]3 [G,D] [F,A,D][E,A,^C] |[M:2/4] [D,F,D]4 | %14
[M:1/4][K:treble] [G,D][G,A,D] |[M:3/4] [G,B,G]3[K:bass] [G,D] [G,,G,][G,,G,] | %16
 [C,G,] [C,G,]3 [C,G,][C,G,C] | [D,G,B,][D,G,B,] [D,F,C]3 [D,A,C] |[M:2/4] [G,,G,]4 |] %19

